X: 2560
T: Ballykeale
R: jig
M: 6/8
K: Gmixolydian
|:AFA ABc|AFA ABc|BGG D3|B/c/dB BAG|
AFA ABc|AFA A2a|bag ^fdc|1 BGB d2c:|2 BG^F GB/c/d||
|:dgg gag|^fde =fga|dgg bag|^fd^c d2f|
g2a bag|^fde =fga|bag ^fdc|1 BG^F GB/c/d:|2 BGB d2c||

